packages/kaspersky-hexa-ui-icons/src/iconsSVGs/48/AppClean.svg

<svg xmlns="http://www.w3.org/2000/svg" width="48" height="48" fill="none" viewBox="0 0 48 48"><path fill="currentColor" fill-rule="evenodd" d="M2 8h30v7h2V0H0v30h20v-2H2zm30-6v4H2V2zm-1 3h-2V3h2zm-4 0h-2V3h2zm21 17c0-1.1046-.8954-2-2-2h-6v-1c0-1.1046-.8954-2-2-2h-8c-1.1046 0-2 .8954-2 2v1h-6c-1.1046 0-2 .8954-2 2v4h2.09l2 22h19.82l2-22H48zm-18-3h8v1h-8zm-8 3h24v2H22zm20.09 24H25.91l-1.82-20h19.82zM30 42.5h-2v-13h2zm5 0h-2v-13h2zm5 0h-2v-13h2z" clip-rule="evenodd"/></svg>

<svg width="48" height="48" viewBox="0 0 48 48" fill="none" xmlns="http://www.w3.org/2000/svg">
<path fill-rule="evenodd" clip-rule="evenodd" d="M2 8H32V15H34V0H0V30H20V28H2V8ZM32 2V6H2V2H32ZM31 5H29V3H31V5ZM27 5H25V3H27V5ZM48 22C48 20.8954 47.1046 20 46 20H40V19C40 17.8954 39.1046 17 38 17H30C28.8954 17 28 17.8954 28 19V20H22C20.8954 20 20 20.8954 20 22V26H22.09L24.09 48H43.91L45.91 26H48V22ZM30 19H38V20H30V19ZM22 22H46V24H22V22ZM42.09 46H25.91L24.09 26H43.91L42.09 46ZM30 42.5H28V29.5H30V42.5ZM35 42.5H33V29.5H35V42.5ZM40 42.5H38V29.5H40V42.5Z"  fill="currentColor"/>
</svg>
